src/images/icons/feature-index.svg

<svg width="134px" height="134px" viewBox="0 0 134 134" xmlns="http://www.w3.org/2000/svg">
    <g stroke="none" stroke-width="1" fill="none" fill-rule="evenodd">
        <path d="M77.2,54 C79.1882251,54 80.8,55.5873541 80.8,57.5454545 C80.8,57.6982142 80.7901904,57.8487173 80.7711577,57.9963864 L86.4390241,63.5822659 C86.7449394,63.4990209 87.0671959,63.4545455 87.4,63.4545455 C89.3882251,63.4545455 91,65.0418995 91,67 C91,68.9581005 89.3882251,70.5454545 87.4,70.5454545 C87.0680558,70.5454545 86.7466049,70.5012087 86.4413959,70.4183787 L80.7711577,76.0036136 C80.7901904,76.1512827 80.8,76.3017858 80.8,76.4545455 C80.8,78.4126459 79.1882251,80 77.2,80 C75.2117749,80 73.6,78.4126459 73.6,76.4545455 C73.6,76.3124055 73.6084931,76.1722192 73.6250068,76.0344518 L66.9808,69.4889091 L60.3708516,76.0012448 C60.3900852,76.1496731 60.4,76.3009689 60.4,76.4545455 C60.4,78.4126459 58.7882251,80 56.8,80 C54.8117749,80 53.2,78.4126459 53.2,76.4545455 C53.2,76.3124055 53.2084931,76.1722192 53.2250068,76.0344518 L47.5300921,70.4259917 C47.2333984,70.5039169 46.9216246,70.5454545 46.6,70.5454545 C44.6117749,70.5454545 43,68.9581005 43,67 C43,65.0418995 44.6117749,63.4545455 46.6,63.4545455 C46.9224846,63.4545455 47.2350656,63.4963055 47.5324717,63.5746342 L53.2250068,57.9655482 C53.2084931,57.8277808 53.2,57.6875945 53.2,57.5454545 C53.2,55.5873541 54.8117749,54 56.8,54 C58.7882251,54 60.4,55.5873541 60.4,57.5454545 C60.4,57.6982142 60.3901904,57.8487173 60.3711577,57.9963864 L66.9808,64.5087273 L73.6247229,57.9631727 C73.6083958,57.8261694 73.6,57.6867776 73.6,57.5454545 C73.6,55.5873541 75.2117749,54 77.2,54 Z M75.8163747,60.8195901 L69.544,66.9976364 L75.8188139,73.17941 C76.2441285,73.0052431 76.7106627,72.9090909 77.2,72.9090909 C77.6781097,72.9090909 78.1344507,73.0008814 78.5518453,73.1675449 L83.9125707,67.8831239 C83.8390781,67.6008002 83.8,67.3048945 83.8,67 C83.8,66.6925647 83.8397321,66.3942687 83.9144152,66.1098208 L78.5542953,60.8314758 C78.1362367,60.998759 77.6790453,61.0909091 77.2,61.0909091 C76.7097271,61.0909091 76.2423445,60.9943888 75.8163747,60.8195901 Z M55.4163747,60.8195901 L50.0774267,66.0793138 C50.1573711,66.3729149 50.2,66.6815546 50.2,67 C50.2,67.3175985 50.1575975,67.6254434 50.0780638,67.9183433 L55.4188139,73.17941 C55.8441285,73.0052431 56.3106627,72.9090909 56.8,72.9090909 C57.2781097,72.9090909 57.7344507,73.0008814 58.1518453,73.1675449 L64.4176,66.9976364 L58.1542953,60.8314758 C57.7362367,60.998759 57.2790453,61.0909091 56.8,61.0909091 C56.3097271,61.0909091 55.8423445,60.9943888 55.4163747,60.8195901 Z" fill="#9BE8D6" fill-rule="nonzero"></path>
    </g>
</svg>

<svg xmlns="http://www.w3.org/2000/svg" viewBox="0 0 134 134">
  <path
    d="M77.2 54c1.988 0 3.6 1.587 3.6 3.545 0 .153-.01.304-.029.451l5.668 5.586c.306-.083.628-.127.961-.127 1.988 0 3.6 1.587 3.6 3.545s-1.612 3.545-3.6 3.545c-.332 0-.653-.044-.959-.127l-5.67 5.586c.02.147.029.298.029.45 0 1.959-1.612 3.546-3.6 3.546s-3.6-1.587-3.6-3.545c0-.143.008-.283.025-.42l-6.644-6.546L60.37 76c.02.149.029.3.029.454 0 1.958-1.612 3.545-3.6 3.545s-3.6-1.587-3.6-3.545c0-.143.008-.283.025-.42l-5.695-5.609c-.297.078-.608.12-.93.12-1.988 0-3.6-1.588-3.6-3.546 0-1.958 1.612-3.545 3.6-3.545.322 0 .635.041.932.12l5.693-5.61a3.529 3.529 0 01-.025-.42c0-1.958 1.612-3.545 3.6-3.545s3.6 1.587 3.6 3.545c0 .153-.01.304-.029.451l6.61 6.513 6.644-6.546a3.529 3.529 0 01-.025-.418c0-1.958 1.612-3.545 3.6-3.545zm-1.384 6.82l-6.272 6.178 6.275 6.181c.425-.174.892-.27 1.381-.27.478 0 .934.092 1.352.259l5.36-5.285a3.501 3.501 0 01.002-1.773l-5.36-5.279c-.418.168-.875.26-1.354.26-.49 0-.958-.097-1.384-.271zm-20.4 0l-5.339 5.26a3.5 3.5 0 01.001 1.838l5.34 5.261c.426-.174.893-.27 1.382-.27.478 0 .934.092 1.352.259l6.266-6.17-6.264-6.167c-.418.168-.875.26-1.354.26-.49 0-.958-.097-1.384-.271z"
    fill="#9BE8D6" fill-rule="nonzero" />
</svg>
